img/big-photo.svg

<svg fill="none" height="24" viewBox="0 0 24 24" width="24" xmlns="http://www.w3.org/2000/svg"><path clip-rule="evenodd" d="m21.5 22h-19c-.275 0-.5-.225-.5-.5v-19c0-.275.225-.5.5-.5h19c.275 0 .5.225.5.5v19c0 .275-.225.5-.5.5zm-18.5-1.25c0 .15.1.25.25.25h17.5c.15 0 .25-.1.25-.25v-4.5c0-.15-.1-.25-.25-.25h-17.5c-.15 0-.25.1-.25.25zm17.75-17.75h-17.5c-.15 0-.25.1-.25.25v11.5c0 .05.025.1.05.125l4.82518-4.825 3.75002 2.25 4.25-5 5.1248 5v-9.05c0-.15-.1-.25-.25-.25zm-15.25 14c.825 0 1.5.675 1.5 1.5s-.675 1.5-1.5 1.5-1.5-.675-1.5-1.5.675-1.5 1.5-1.5zm2.75 1h11.5c.15 0 .25.1.25.25v.5c0 .15-.1.25-.25.25h-11.5c-.15 0-.25-.1-.25-.25v-.5c0-.15.1-.25.25-.25z" fill="#1c8aa9" fill-rule="evenodd"/></svg>

<svg width="24" height="24" viewBox="0 0 24 24" fill="none" xmlns="http://www.w3.org/2000/svg">
<path fill-rule="evenodd" clip-rule="evenodd" d="M21.5 22H2.5C2.225 22 2 21.775 2 21.5V2.5C2 2.225 2.225 2 2.5 2H21.5C21.775 2 22 2.225 22 2.5V21.5C22 21.775 21.775 22 21.5 22ZM3 20.75C3 20.9 3.1 21 3.25 21H20.75C20.9 21 21 20.9 21 20.75V16.25C21 16.1 20.9 16 20.75 16H3.25C3.1 16 3 16.1 3 16.25V20.75ZM20.75 3H3.25C3.1 3 3 3.1 3 3.25V14.75C3 14.8 3.025 14.85 3.05 14.875L7.87518 10.05L11.6252 12.3L15.8752 7.3L21 12.3V3.25C21 3.1 20.9 3 20.75 3ZM5.5 17C6.325 17 7 17.675 7 18.5C7 19.325 6.325 20 5.5 20C4.675 20 4 19.325 4 18.5C4 17.675 4.675 17 5.5 17ZM8.25 18H19.75C19.9 18 20 18.1 20 18.25V18.75C20 18.9 19.9 19 19.75 19H8.25C8.1 19 8 18.9 8 18.75V18.25C8 18.1 8.1 18 8.25 18Z" fill="#1C8AA9"/>
</svg>
